images/digivalet.svg

<svg fill="none" height="25" viewBox="0 0 100 25" width="100" xmlns="http://www.w3.org/2000/svg"><path clip-rule="evenodd" d="m92.1088 6.01799h-.7098l-.8201-2.52334-1.9012 5.84934h-.8532l-.574-.4147 2.9023-8.92929zm-70.7667 4.76541c0 1.0141.2038 1.757.6107 2.2286.407.467 1.0581.703 1.9534.703.8855 0 1.5108-.2452 1.872-.7388.3613-.4894.5446-1.3922.5446-2.7002 0-1.15678-.1935-1.98409-.575-2.48672-.3815-.49834-1.0073-.74738-1.8721-.74738-.9207 0-1.577.27124-1.9587.81431-.3815.54252-.5749 1.51667-.5749 2.92719zm4.2787 7.3618h-2.681c-1.1548 0-2.0453.2445-2.671.7385-.6257.4892-.9361 1.1878-.9361 2.0908 0 .9031.3764 1.6193 1.1345 2.1439.7529.5254 1.7806.788 3.0829.788 1.6484 0 3.037-.3918 4.1664-1.179 1.1244-.7875 1.6892-1.7261 1.6892-2.8207 0-.6445-.2698-1.0984-.814-1.3656-.5394-.2625-1.5314-.3959-2.9709-.3959zm-22.83309-4.2749c0 1.3216.22385 2.2688.67159 2.8471.44784.5782 1.17501.8672 2.19257.8672.88002 0 1.65857-.2221 2.32495-.6714.66123-.4452 1.20047-1.1031 1.60758-1.9708v-4.773c-.38675-.93868-.92097-1.66397-1.59223-2.1757-.67682-.51151-1.43981-.76958-2.28429-.76958-.97163 0-1.7041.29828-2.18748.89892-.48836.60025-.73269 1.49469-.73269 2.68676zm27.21759-9.1583c0-.32026.1557-.60042.4666-.83618.3055-.24027.6759-.36019 1.1125-.36019.4428 0 .8135.1153 1.1188.35106.3048.23597.4544.51606.4544.84531 0 .3424-.1496.6231-.4486.84965-.2932.22706-.6699.33777-1.1246.33777-.4486 0-.8196-.11533-1.1245-.34647-.305-.22706-.4546-.50765-.4546-.84095zm-15.5836 0c0-.32026.1557-.60042.4666-.83618.3053-.24027.6758-.36019 1.1126-.36019.4427 0 .8134.1153 1.1185.35106.3048.23597.4547.51606.4547.84531 0 .3424-.1499.6231-.4488.84965-.2931.22706-.67.33777-1.1244.33777-.4484 0-.8196-.11533-1.1247-.34647-.3051-.22706-.4545-.50765-.4545-.84095zm15.1451 12.5785h.751v-9.86693h-1.056c-.6702-.0261-1.1149.01043-1.4774.1236-.1238.04429-.246.09793-.3671.16074-.0698.03686-.1396.07718-.2094.12158l.2515.2023-.0022.00206c.3766.40069.6562.79647.8443 1.1924.1883.39578.2849.79615.2849 1.20565 0 .9963-.4629 1.8594-1.3939 2.5801-.9309.7206-2.0347 1.0808-3.3168 1.0808-.3256 0-.7937-.0667-1.399-.1999-.6052-.1382-1.0528-.2049-1.3431-.2049-.6155 0-1.1294.1291-1.5515.3916-.4172.262-.6256.5737-.6256.9388 0 .409.2033.6893.605.8404.402.1512 1.3024.2271 2.7068.2271h2.5637c2.1165 0 3.5206.2313 4.2075.6895.2066.1378.3822.3097.5273.5151zm-19.93697-1.3872c-.53903.7074-1.11387 1.2277-1.73931 1.5704-.6206.3423-1.3127.5159-2.07579.5159-1.71966 0-3.11823-.5248-4.19701-1.5701-1.078587-1.0454-1.61772-2.4112-1.61772-4.097 0-1.5215.549497-2.82931 1.65337-3.92839 1.10394-1.09847 2.39616-1.64999 3.87648-1.64999.88533 0 1.67883.21356 2.37573.63606.70206.427 1.2616 1.03606 1.67882 1.82365v-4.85516h-3.28734v-.3778h3.01741c.53943 0 1.03323-.05361 1.49083-.15584.4577-.10223.9056-.26269 1.3431-.48054v3.70741h-.0134v.37817h.0134v9.86683h.8657.9098.8197v-9.86683h-2.5952v-.37817h2.3308c.6358 0 1.1905-.02671 1.6688-.08025.473-.04891.8597-.13302 1.1598-.24446v10.56971h1.5929c-.3698-.4531-.5548-.9872-.5548-1.606 0-.7207.2494-1.2811.7478-1.6817.4934-.3957 1.2158-.6181 2.1569-.6625-.753-.445-1.3074-.903-1.6581-1.3745-.3513-.4718-.5295-.9919-.5295-1.5571 0-1.04081.4579-1.91746 1.3788-2.62463.9208-.7076 2.0856-1.06328 3.4951-1.06328.656 0 1.2563.08924 1.7957.26728.4274.13937.8081.33441 1.1441.58338.1561-.10786.3174-.20078.4843-.27781.3716-.17367.7681-.258 1.1855-.258h.0264l.0105-.00368h1.4652c.636 0 1.195-.00949 1.6732-.06303.4732-.0488.8598-.13363 1.1599-.24445v10.56962h1.6828v.3779h-4.7825c.1967.4335.295.9748.295 1.6247 0 1.4765-.6053 2.6867-1.811 3.6299s-2.7674 1.4151-4.6855 1.4151c-1.7395 0-3.1337-.2987-4.1864-.8947-1.0534-.5961-1.5822-1.3652-1.5822-2.3131 0-.5737.2543-1.1122.7579-1.6237.5088-.5071 1.221-.9342 2.1316-1.2811-.5527-.0438-1.0273-.2297-1.4266-.5608h-5.3509-.9098-3.38427zm24.64907-8.48324h-1.2822v-.37816h5.6776v.37816h-1.7447l3.6371 7.49564 2.8031-6.01005c.0915-.17345.1526-.32878.1932-.46252.0408-.13324.0613-.25345.0613-.36019 0-.24034-.112-.40929-.3359-.4983-.224-.09325-.7632-.15126-1.6178-.17775v-.36499h4.2324v.37816h-.178c-.407 0-.7528.13303-1.0277.39561-.2796.26727-.6257.83192-1.0425 1.70424l-3.9069 8.32739-.2547.1422zm20.6923 9.86684h.0946.0009l.0052-.0003.1299.0003h.9497v-12.93823h-3.283v-.3778h3.0132c.57 0 1.0788-.04902 1.5313-.15143.4479-.09805.8854-.25818 1.3026-.48495v13.95241h1.6836v.3778h-4.9697c-.3594.1573-.7482.2357-1.1673.2357-.6356 0-1.165-.1465-1.5921-.4356-.4324-.2939-.7071-.7073-.8392-1.2502-.3971.5918-.9564 1.0367-1.6739 1.3301-.7226.298-1.6075.4448-2.6604.4448-1.0126 0-1.8518-.2577-2.5184-.7696-.6666-.5117-.9972-1.1474-.9972-1.904 0-1.1431.6562-2.0326 1.9738-2.6642 1.3175-.6275 3.1795-.9433 5.596-.9433h.1478v-2.69582c0-.68078-.1832-1.16998-.5497-1.46787-.3711-.29766-.9666-.44953-1.7904-.44953-.697 0-1.3075.14724-1.8317.44491-.5289.29391-.7886.58295-.7886.85864 0 .0266.1375.15583.4224.3917.2848.23565.4273.49372.4273.78279 0 .3916-.117.69838-.3559.92528-.2391.2267-.5597.3382-.9567.3382-.4272 0-.7677-.1161-1.0172-.3473-.2542-.2267-.3818-.53357-.3818-.91618 0-.792.4328-1.46357 1.2974-2.02013.8649-.55552 1.9485-.8359 3.2457-.8359.646 0 1.2514.08003 1.8213.23587.5645.15573 1.0936.39159 1.5924.70269.4777.30265.8035.62306.9815.95191.1782.32929.2699.86774.2699 1.61514v5.3556c0 .5744.0731.9982.2287 1.2726.1477.2608.3681.4217.658.4359zm-3.2726-1.5792v-3.5943c-.107-.009-.2292-.018-.3563-.0225-.132-.0043-.3156-.0043-.5547-.0043-1.409 0-2.4568.24-3.1335.7162-.6817.476-1.0225 1.2145-1.0225 2.2156 0 .7558.1883 1.343.5648 1.7569.3813.4181.9052.6268 1.5817.6268.5955 0 1.16-.1508 1.6891-.4579.5345-.3025.9413-.7159 1.2314-1.2365zm10.8464-4.7956h4.7108v-1.25015c0-.87614-.1932-1.5257-.5799-1.93931-.3867-.41838-.9918-.62746-1.8058-.62746-.7734 0-1.3584.245-1.7452.72969-.3865.48502-.5799 1.21901-.5799 2.20193zm0 .3782v3.0915c0 1.1077.2441 1.9176.7327 2.4203.483.5023 1.2615.7558 2.3247.7558 1.0634 0 1.9789-.3021 2.7573-.9117.7733-.6094 1.3228-1.45 1.6379-2.5268h.4632c-.3665 1.2237-.9871 2.18-1.8619 2.8693-.8751.6852-1.9129 1.0275-3.1185 1.0275-1.5669 0-2.9151-.5425-4.0292-1.6237-1.1189-1.0807-1.6788-2.3974-1.6788-3.9544 0-1.6237.5038-2.98491 1.5111-4.0793 1.0123-1.09414 2.2435-1.64161 3.7088-1.64161 1.409 0 2.6092.43174 3.6066 1.28994.9917.8586 1.5464 1.9531 1.6534 3.28317zm11.2678 4.5107c0 .5915.1019 1.0096.3002 1.2589.1983.2445.5341.3694 1.0126.3694.5037 0 .9458-.1292 1.3226-.3829.3815-.2578.6613-.6224.8493-1.0896h.4478c-.2289.6493-.6103 1.1522-1.1395 1.5035-.529.3517-1.1803.5292-1.9434.5292-.4882 0-.9462-.0709-1.3784-.2089-.4326-.1381-.8041-.3381-1.1093-.6004-.2388-.2006-.412-.4274-.5137-.6806-.1069-.2583-.1579-.627-.1579-1.1032v-.5341-7.44224h-2.116v-.37816c1.2004 0 2.1264-.2802 2.7722-.84532.6463-.56476 1.0787-1.62976 1.2976-2.86209h.3559v3.70741h3.383v.37816h-3.383zm22.938-7.28521h-6.21l-.2521-.78073.2281-.70403h9.4828l-5.1389 3.73237-.2306-.7073zm-7.916 2.90941-5.0937-3.69955h2.7633l.2633-.70193-6.4746.00704 7.6999 5.59244.5895-.4314zm-2.9832 4.0553 5.0079-3.6373.6898.5038.2215.6643-7.6519 5.5541 1.9648-6.0445.5805.4593zm6.0194-5.3808 1.9037 5.8568-2.0704-1.4975-.6224.4075 5.1099 3.7114-2.9279-8.99689-.6686.0004z" fill="#fff" fill-rule="evenodd"/></svg>

<svg width="100" height="25" viewBox="0 0 100 25" fill="none" xmlns="http://www.w3.org/2000/svg">
<path fill-rule="evenodd" clip-rule="evenodd" d="M92.1088 6.01799H91.399L90.5789 3.49465L88.6777 9.34399H87.8245L87.2505 8.92929L90.1528 0L92.1088 6.01799ZM21.3421 10.7834C21.3421 11.7975 21.5459 12.5404 21.9528 13.012C22.3598 13.479 23.0109 13.715 23.9062 13.715C24.7917 13.715 25.417 13.4698 25.7782 12.9762C26.1395 12.4868 26.3228 11.584 26.3228 10.276C26.3228 9.11922 26.1293 8.29191 25.7478 7.78928C25.3663 7.29094 24.7405 7.0419 23.8757 7.0419C22.955 7.0419 22.2987 7.31314 21.917 7.85621C21.5355 8.39873 21.3421 9.37288 21.3421 10.7834ZM25.6208 18.1452H22.9398C21.785 18.1452 20.8945 18.3897 20.2688 18.8837C19.6431 19.3729 19.3327 20.0715 19.3327 20.9745C19.3327 21.8776 19.7091 22.5938 20.4672 23.1184C21.2201 23.6438 22.2478 23.9064 23.5501 23.9064C25.1985 23.9064 26.5871 23.5146 27.7165 22.7274C28.8409 21.9399 29.4057 21.0013 29.4057 19.9067C29.4057 19.2622 29.1359 18.8083 28.5917 18.5411C28.0523 18.2786 27.0603 18.1452 25.6208 18.1452ZM2.78771 13.8703C2.78771 15.1919 3.01156 16.1391 3.4593 16.7174C3.90714 17.2956 4.63431 17.5846 5.65187 17.5846C6.53189 17.5846 7.31044 17.3625 7.97682 16.9132C8.63805 16.468 9.17729 15.8101 9.5844 14.9424V10.1694C9.19765 9.23072 8.66343 8.50543 7.99217 7.9937C7.31535 7.48219 6.55236 7.22412 5.70788 7.22412C4.73625 7.22412 4.00378 7.5224 3.5204 8.12304C3.03204 8.72329 2.78771 9.61773 2.78771 10.8098V13.8703ZM30.0053 4.712C30.0053 4.39174 30.161 4.11158 30.4719 3.87582C30.7774 3.63555 31.1478 3.51563 31.5844 3.51563C32.0272 3.51563 32.3979 3.63093 32.7032 3.86669C33.008 4.10266 33.1576 4.38275 33.1576 4.712C33.1576 5.0544 33.008 5.3351 32.709 5.56165C32.4158 5.78871 32.0391 5.89942 31.5844 5.89942C31.1358 5.89942 30.7648 5.78409 30.4599 5.55295C30.1549 5.32589 30.0053 5.0453 30.0053 4.712ZM14.4217 4.712C14.4217 4.39174 14.5774 4.11158 14.8883 3.87582C15.1936 3.63555 15.5641 3.51563 16.0009 3.51563C16.4436 3.51563 16.8143 3.63093 17.1194 3.86669C17.4242 4.10266 17.5741 4.38275 17.5741 4.712C17.5741 5.0544 17.4242 5.3351 17.1253 5.56165C16.8322 5.78871 16.4553 5.89942 16.0009 5.89942C15.5525 5.89942 15.1813 5.78409 14.8762 5.55295C14.5711 5.32589 14.4217 5.0453 14.4217 4.712ZM29.5668 17.2905H30.3178V7.42357H29.2618C28.5916 7.39747 28.1469 7.434 27.7844 7.54717C27.6606 7.59146 27.5384 7.6451 27.4173 7.70791C27.3475 7.74477 27.2777 7.78509 27.2079 7.82949L27.4594 8.03179L27.4572 8.03385C27.8338 8.43454 28.1134 8.83032 28.3015 9.22625C28.4898 9.62203 28.5864 10.0224 28.5864 10.4319C28.5864 11.4282 28.1235 12.2913 27.1925 13.012C26.2616 13.7326 25.1578 14.0928 23.8757 14.0928C23.5501 14.0928 23.082 14.0261 22.4767 13.8929C21.8715 13.7547 21.4239 13.688 21.1336 13.688C20.5181 13.688 20.0042 13.8171 19.5821 14.0796C19.1649 14.3416 18.9565 14.6533 18.9565 15.0184C18.9565 15.4274 19.1598 15.7077 19.5615 15.8588C19.9635 16.01 20.8639 16.0859 22.2683 16.0859H24.832C26.9485 16.0859 28.3526 16.3172 29.0395 16.7754C29.2461 16.9132 29.4217 17.0851 29.5668 17.2905ZM9.62983 15.9033C9.0908 16.6107 8.51596 17.131 7.89052 17.4737C7.26992 17.816 6.57782 17.9896 5.81473 17.9896C4.09507 17.9896 2.6965 17.4648 1.61772 16.4195C0.539133 15.3741 0 14.0083 0 12.3225C0 10.801 0.549497 9.49319 1.65337 8.39411C2.75731 7.29564 4.04953 6.74412 5.52985 6.74412C6.41518 6.74412 7.20868 6.95768 7.90558 7.38018C8.60764 7.80718 9.16718 8.41624 9.5844 9.20383V4.34867H6.29706V3.97087H9.31447C9.8539 3.97087 10.3477 3.91726 10.8053 3.81503C11.263 3.7128 11.7109 3.55234 12.1484 3.33449V7.0419H12.135V7.42007H12.1484V17.2869H13.0141H13.9239H14.7436V7.42007H12.1484V7.0419H14.4792C15.115 7.0419 15.6697 7.01519 16.148 6.96165C16.621 6.91274 17.0077 6.82863 17.3078 6.71719V17.2869H18.9007C18.5309 16.8338 18.3459 16.2997 18.3459 15.6809C18.3459 14.9602 18.5953 14.3998 19.0937 13.9992C19.5871 13.6035 20.3095 13.3811 21.2506 13.3367C20.4976 12.8917 19.9432 12.4337 19.5925 11.9622C19.2412 11.4904 19.063 10.9703 19.063 10.4051C19.063 9.36429 19.5209 8.48764 20.4418 7.78047C21.3626 7.07287 22.5274 6.71719 23.9369 6.71719C24.5929 6.71719 25.1932 6.80643 25.7326 6.98447C26.16 7.12384 26.5407 7.31888 26.8767 7.56785C27.0328 7.45999 27.1941 7.36707 27.361 7.29004C27.7326 7.11637 28.1291 7.03204 28.5465 7.03204H28.5729L28.5834 7.02836H30.0486C30.6846 7.02836 31.2436 7.01887 31.7218 6.96533C32.195 6.91653 32.5816 6.8317 32.8817 6.72088V17.2905H34.5645V17.6684H29.782C29.9787 18.1019 30.077 18.6432 30.077 19.2931C30.077 20.7696 29.4717 21.9798 28.266 22.923C27.0603 23.8662 25.4986 24.3381 23.5805 24.3381C21.841 24.3381 20.4468 24.0394 19.3941 23.4434C18.3407 22.8473 17.8119 22.0782 17.8119 21.1303C17.8119 20.5566 18.0662 20.0181 18.5698 19.5066C19.0786 18.9995 19.7908 18.5724 20.7014 18.2255C20.1487 18.1817 19.6741 17.9958 19.2748 17.6647H13.9239H13.0141H9.62983V15.9033ZM34.2789 7.42006H32.9967V7.0419H38.6743V7.42006H36.9296L40.5667 14.9157L43.3698 8.90565C43.4613 8.7322 43.5224 8.57687 43.563 8.44313C43.6038 8.30989 43.6243 8.18968 43.6243 8.08294C43.6243 7.8426 43.5123 7.67365 43.2884 7.58464C43.0644 7.49139 42.5252 7.43338 41.6706 7.40689V7.0419H45.903V7.42006H45.725C45.318 7.42006 44.9722 7.55309 44.6973 7.81567C44.4177 8.08294 44.0716 8.64759 43.6548 9.51991L39.7479 17.8473L39.4932 17.9895L34.2789 7.42006ZM54.9712 17.2869H55.0658H55.0667L55.0719 17.2866L55.2018 17.2869H56.1515V4.34867H52.8685V3.97087H55.8817C56.4517 3.97087 56.9605 3.92185 57.413 3.81944C57.8609 3.72139 58.2984 3.56126 58.7156 3.33449V17.2869H60.3992V17.6647H55.4295C55.0701 17.822 54.6813 17.9004 54.2622 17.9004C53.6266 17.9004 53.0972 17.7539 52.6701 17.4648C52.2377 17.1709 51.963 16.7575 51.8309 16.2146C51.4338 16.8064 50.8745 17.2513 50.157 17.5447C49.4344 17.8427 48.5495 17.9895 47.4966 17.9895C46.484 17.9895 45.6448 17.7318 44.9782 17.2199C44.3116 16.7082 43.981 16.0725 43.981 15.3159C43.981 14.1728 44.6372 13.2833 45.9548 12.6517C47.2723 12.0242 49.1343 11.7084 51.5508 11.7084H51.6986V9.01258C51.6986 8.3318 51.5154 7.8426 51.1489 7.54471C50.7778 7.24705 50.1823 7.09518 49.3585 7.09518C48.6615 7.09518 48.051 7.24242 47.5268 7.54009C46.9979 7.834 46.7382 8.12304 46.7382 8.39873C46.7382 8.42533 46.8757 8.55456 47.1606 8.79043C47.4454 9.02608 47.5879 9.28415 47.5879 9.57322C47.5879 9.96482 47.4709 10.2716 47.232 10.4985C46.9929 10.7252 46.6723 10.8367 46.2753 10.8367C45.8481 10.8367 45.5076 10.7206 45.2581 10.4894C45.0039 10.2627 44.8763 9.95583 44.8763 9.57322C44.8763 8.78122 45.3091 8.10965 46.1737 7.55309C47.0386 6.99757 48.1222 6.71719 49.4194 6.71719C50.0654 6.71719 50.6708 6.79722 51.2407 6.95306C51.8052 7.10879 52.3343 7.34465 52.8331 7.65575C53.3108 7.9584 53.6366 8.27881 53.8146 8.60766C53.9928 8.93695 54.0845 9.4754 54.0845 10.2228V15.5784C54.0845 16.1528 54.1576 16.5766 54.3132 16.851C54.4609 17.1118 54.6813 17.2727 54.9712 17.2869ZM51.6986 15.7077V12.1134C51.5916 12.1044 51.4694 12.0954 51.3423 12.0909C51.2103 12.0866 51.0267 12.0866 50.7876 12.0866C49.3786 12.0866 48.3308 12.3266 47.6541 12.8028C46.9724 13.2788 46.6316 14.0173 46.6316 15.0184C46.6316 15.7742 46.8199 16.3614 47.1964 16.7753C47.5777 17.1934 48.1016 17.4021 48.7781 17.4021C49.3736 17.4021 49.9381 17.2513 50.4672 16.9442C51.0017 16.6417 51.4085 16.2283 51.6986 15.7077ZM62.545 10.9121H67.2558V9.66195C67.2558 8.78581 67.0626 8.13625 66.6759 7.72264C66.2892 7.30426 65.6841 7.09518 64.8701 7.09518C64.0967 7.09518 63.5117 7.34018 63.1249 7.82487C62.7384 8.30989 62.545 9.04388 62.545 10.0268V10.9121ZM62.545 11.2903V14.3818C62.545 15.4895 62.7891 16.2994 63.2777 16.8021C63.7607 17.3044 64.5392 17.5579 65.6024 17.5579C66.6658 17.5579 67.5813 17.2558 68.3597 16.6462C69.133 16.0368 69.6825 15.1962 69.9976 14.1194H70.4608C70.0943 15.3431 69.4737 16.2994 68.5989 16.9887C67.7238 17.6739 66.686 18.0162 65.4804 18.0162C63.9135 18.0162 62.5653 17.4737 61.4512 16.3925C60.3323 15.3118 59.7724 13.9951 59.7724 12.4381C59.7724 10.8144 60.2762 9.45319 61.2835 8.3588C62.2958 7.26466 63.527 6.71719 64.9923 6.71719C66.4013 6.71719 67.6015 7.14893 68.5989 8.00713C69.5906 8.86573 70.1453 9.96023 70.2523 11.2903H62.545ZM73.8128 15.801C73.8128 16.3925 73.9147 16.8106 74.113 17.0599C74.3113 17.3044 74.6471 17.4293 75.1256 17.4293C75.6293 17.4293 76.0714 17.3001 76.4482 17.0464C76.8297 16.7886 77.1095 16.424 77.2975 15.9568H77.7453C77.5164 16.6061 77.135 17.109 76.6058 17.4603C76.0768 17.812 75.4255 17.9895 74.6624 17.9895C74.1742 17.9895 73.7162 17.9186 73.284 17.7806C72.8514 17.6425 72.4799 17.4425 72.1747 17.1802C71.9359 16.9796 71.7627 16.7528 71.661 16.4996C71.5541 16.2413 71.5031 15.8726 71.5031 15.3964V14.8623V7.42006H69.3871V7.0419C70.5875 7.0419 71.5135 6.7617 72.1593 6.19658C72.8056 5.63182 73.238 4.56682 73.4569 3.33449H73.8128V7.0419H77.1958V7.42006H73.8128V15.801ZM96.7508 8.51579H90.5408L90.2887 7.73506L90.5168 7.03103H99.9996L94.8607 10.7634L94.6301 10.0561L96.7508 8.51579ZM88.8348 11.4252L83.7411 7.72565H86.5044L86.7677 7.02372L80.2931 7.03076L87.993 12.6232L88.5825 12.1918L88.8348 11.4252ZM85.8516 15.4805L90.8595 11.8432L91.5493 12.347L91.7708 13.0113L84.1189 18.5654L86.0837 12.5209L86.6642 12.9802L85.8516 15.4805ZM91.871 10.0997L93.7747 15.9565L91.7043 14.459L91.0819 14.8665L96.1918 18.5779L93.2639 9.58101L92.5953 9.58141L91.871 10.0997Z" fill="white"/>
</svg>
